gy/si-glyph-safe-pin.svg

<svg viewBox="0 0 17 16" xmlns="http://www.w3.org/2000/svg" class="si-glyph si-glyph-safe-pin" height="1em" width="1em">
  <path d="M16.756 12.992c-.066-.122-1.613-5.493-4.037-9.289-.722-1.129-1.5-2.091-2.308-2.692l-.364.442c3.161 3.087 4.869 8.3 5.594 10.609-.603-.048-1.614.069-2.063.518-.442.44-.613 1.133-.57 1.712-.026-.02-.056-.04-.077-.058-1.338-1.046-5.919-5.068-8.672-7.611.133-.352.266-.649.404-.911.064-.121-.04-.382-.148-.425a1.365 1.365 0 0 1-.856-1.273c0-.758.601-1.373 1.345-1.373.604 0 1.113.407 1.281.968.035.116.33.199.479.112.398-.234.861-.49 1.408-.811L6.076.817c-1.083-1.081-2.92-1-4.102.179C.792 2.175.712 4.009 1.796 5.091c0 0 1.988 1.914 2.244 2.151 2.936 2.727 7.797 6.938 9.768 8.402l.068.051c.435.275.959.363 1.457.263a2.08 2.08 0 0 0 1.629-1.627c.092-.456.018-.93-.206-1.339Zm-1.76 2.305a1.283 1.283 0 0 1-1.283-1.281 1.283 1.283 0 0 1 2.567 0c0 .707-.575 1.281-1.284 1.281Z" fill="#434343" class="si-glyph-fill" fill-rule="evenodd"/>
</svg>

<svg viewBox="0 0 17 16" version="1.1" xmlns="http://www.w3.org/2000/svg" class="si-glyph si-glyph-safe-pin" height="1em" width="1em">
  <g stroke="none" stroke-width="1" fill="none" fill-rule="evenodd">
    <path d="M16.756,12.992 C16.69,12.87 15.143,7.499 12.719,3.703 C11.997,2.574 11.219,1.612 10.411,1.011 L10.047,1.453 C13.208,4.54 14.916,9.753 15.641,12.062 C15.038,12.014 14.027,12.131 13.578,12.58 C13.136,13.02 12.965,13.713 13.008,14.292 C12.982,14.272 12.952,14.252 12.931,14.234 C11.593,13.188 7.012,9.166 4.259,6.623 C4.392,6.271 4.525,5.974 4.663,5.712 C4.727,5.591 4.623,5.33 4.515,5.287 C4.014,5.088 3.659,4.595 3.659,4.014 C3.659,3.256 4.26,2.641 5.004,2.641 C5.608,2.641 6.117,3.048 6.285,3.609 C6.32,3.725 6.615,3.808 6.764,3.721 C7.162,3.487 7.625,3.231 8.172,2.91 L6.076,0.817 C4.993,-0.264 3.156,-0.183 1.974,0.996 C0.792,2.175 0.712,4.009 1.796,5.091 C1.796,5.091 3.784,7.005 4.04,7.242 C6.976,9.969 11.837,14.18 13.808,15.644 C13.831,15.66 13.853,15.678 13.876,15.695 C14.311,15.97 14.835,16.058 15.333,15.958 C15.72,15.881 16.091,15.691 16.394,15.39 C16.697,15.089 16.885,14.718 16.962,14.331 C17.054,13.875 16.98,13.401 16.756,12.992 L16.756,12.992 Z M14.996,15.297 C14.288,15.297 13.713,14.723 13.713,14.016 C13.713,13.309 14.288,12.735 14.996,12.735 C15.705,12.735 16.28,13.309 16.28,14.016 C16.28,14.723 15.705,15.297 14.996,15.297 L14.996,15.297 Z" fill="#434343" class="si-glyph-fill"/>
  </g>
</svg>
